X:1
T: The Thief of Lough Erne
C:
R:Jig
Q:180
K:G
M:6/8
L:1/16
GA|:G2E2D2 D2E2D2|A2d2c2 B4A2|G2E2E2 E2G2E2|G2E2E2 E4A2|
G2E2D2 D2E2D2|A2d2c2 B4A2|B2G2G2 G4A2|1B2G2G2 G4GA:|2B2G2G2 G4A2|
|:B2G2G2 d2G2G2|B2G2G2 d2G2G2|A2F2F2 c2F2F2|A2F2A2 c4A2|
|1B2G2G2 d2G2G2|B2G2G2 d2G2G2|B2d2c2 B4A2|B2G2G2 G4A2:|
|2B2G2G2 d2G2G2|g2f2e2 d2B2G2|B2d2c2 B4A2|B2G2G2 G4||
